openmetadata-ui/src/main/resources/ui/src/assets/svg/ic-mail.svg

<svg width="16" height="16" viewBox="0 0 16 16" fill="none" xmlns="http://www.w3.org/2000/svg">
<path d="M14.25 2.37012H1.75001C1.0606 2.37012 0.5 2.93071 0.5 3.62013V12.3701C0.5 13.0595 1.0606 13.6201 1.75001 13.6201H14.25C14.9394 13.6201 15.5 13.0595 15.5 12.3701V3.62013C15.5 2.93071 14.9394 2.37012 14.25 2.37012ZM1.75001 2.99511H14.25C14.2961 2.99511 14.3367 3.01189 14.3799 3.02139C13.2977 4.01183 9.70927 7.2946 8.45352 8.42602C8.35525 8.51452 8.19688 8.62011 8.00003 8.62011C7.80318 8.62011 7.6448 8.51452 7.54622 8.42572C6.29059 7.29448 2.70198 4.01153 1.61996 3.02145C1.66326 3.01195 1.70393 2.99511 1.75001 2.99511ZM1.12499 12.3701V3.62013C1.12499 3.5589 1.14345 3.50335 1.15997 3.44739C1.98825 4.20548 4.49208 6.49603 6.1156 7.97238C4.49735 9.36243 1.99288 11.7369 1.15801 12.533C1.14327 12.4799 1.12499 12.4279 1.12499 12.3701ZM14.25 12.9951H1.75001C1.70009 12.9951 1.6557 12.9777 1.60909 12.9666C2.4718 12.1442 4.99221 9.75606 6.582 8.39602C6.78925 8.58401 6.97856 8.75543 7.1278 8.8899C7.38538 9.12246 7.68688 9.24513 8 9.24513C8.31312 9.24513 8.61462 9.12243 8.87188 8.8902C9.02117 8.75566 9.21063 8.5841 9.418 8.39602C11.0079 9.75592 13.5279 12.1438 14.3909 12.9666C14.3443 12.9777 14.3 12.9951 14.25 12.9951ZM14.875 12.3701C14.875 12.4279 14.8567 12.4799 14.842 12.533C14.0068 11.7365 11.5026 9.36229 9.88443 7.97241C11.508 6.49605 14.0115 4.20571 14.84 3.44733C14.8566 3.50329 14.875 3.55887 14.875 3.6201V12.3701V12.3701Z" fill="#37352F" stroke="#37352F" stroke-width="0.3"/>
</svg>

<svg xmlns="http://www.w3.org/2000/svg" width="16" height="16" fill="none"><path fill="#37352F" stroke="#37352F" stroke-width=".3" d="M14.25 2.37H1.75C1.06 2.37.5 2.93.5 3.62v8.75c0 .69.56 1.25 1.25 1.25h12.5c.69 0 1.25-.56 1.25-1.25V3.62c0-.69-.56-1.25-1.25-1.25Zm-12.5.625h12.5c.046 0 .087.017.13.026-1.082.99-4.67 4.274-5.926 5.405A.693.693 0 0 1 8 8.62a.693.693 0 0 1-.454-.194A1690.527 1690.527 0 0 1 1.62 3.02c.043-.009.084-.026.13-.026Zm-.625 9.375V3.62c0-.061.018-.117.035-.173.828.758 3.332 3.049 4.956 4.525-1.619 1.39-4.123 3.765-4.958 4.561-.015-.053-.033-.105-.033-.163Zm13.125.625H1.75c-.05 0-.094-.017-.14-.028.862-.823 3.382-3.21 4.972-4.571l.546.494c.257.232.559.355.872.355.313 0 .615-.123.872-.355.15-.134.339-.306.546-.494 1.59 1.36 4.11 3.748 4.973 4.57-.047.012-.091.03-.141.03Zm.625-.625c0 .058-.018.11-.033.163-.835-.796-3.34-3.17-4.958-4.56 1.624-1.477 4.127-3.767 4.956-4.526.017.056.035.112.035.173v8.75Z"/></svg>
